X:85
T:Twelfth of January
S:Bernie Waugh
R:Reel
M:4/4
L:1/8
K:A dorian
|:\
"Am"A,A,CC "D"DDFD|"Am"A,A, C2 "D"D2AA|"Am"ABcB "Em"AGEG|"Am"ABcB "Em"AGEG|
"Am"A,A,CC "D"DDFD|"Am"A,A,C2"D"D2AA|"Am"ABea "Em"(3gfe dB|"Am"EGA2A4:|
|:\
"A"e2a2abag|egaba2ef|"C"gfga bagf|gfga bagf|
"D"ea2g abag|egab a2ag|"F"efgf (3edc BG|"Em"EGA2"Am"A4:|

